!!!COM: Mozart
!!!OTL: 12 Variations on "Ah Vous dirais-je, Maman" for the Piano,
!!!Variation: 9 c
**kern	**kern
*M2/4	*M2/4
=-	=-
4EE' 4C'	4ccc'
4r	4ccc'
=	=
2r	4gg'
.	4gg'
=	=
*	*
*	*^
2r	4aa'	4ff'
.	4aa'	4ff'
=	=	=
2r	4gg'	4cc
.	(8.eeL	4cc
.	16ggJk)	.
=	=	=
4g'	4ff'	4b
4g'	(8.ddL	4b
.	16ffJk)	.
=	=	=
4c'	4ee'	4cc
4c'	4cc'	4e 4g
=	=	=
4GGG 4GG	(8ccL	2d 2f
.	8bJ	.
4GGG 4GG	8aL	.
.	8bJ)	.
=	=	=
4CC 4C	4cc	4e
4r	4r	4r
*	*v	*v
==	==
*-	*-
